X: 34289
T: Repeal The Union
R: jig
M: 6/8
K: Fmajor
~F3 FAc|dcA cdf|afd dcA|cAF GFD|
~F3 FAc|~d3 cdf|afd cdf|gfe f3:|
|:b2 a g2 a|fgf dfd|~c3 f2 d|cAF GFD|
~F3 FAc|dcA cdf|afd cdf|gfe f3:|
|:FGF A2 B|cdc ~A3|~B3 G2 B|AGA F2 C|
FGF A2 B|cdc ~A3|~B3 G2 E|FGF ~F3:|

